svgs/gloom.svg

<svg width="192" height="192" viewBox="0 0 192 192" fill="none" xmlns="http://www.w3.org/2000/svg">
<path d="M80.0856 78.1951C85.0413 72.9785 93.5545 72.9785 98.5102 78.1951C103.218 83.1508 103.218 90.7427 98.5102 95.6985M80.0856 78.1951C75.3777 83.1508 75.3777 90.7427 80.0856 95.6985C82.3373 98.0687 85.3235 99.362 88.3767 99.5783M80.0856 78.1951L71.7945 70.8252M98.5102 95.6985L113.25 111.359M98.5102 95.6985C95.8062 98.5448 92.0431 99.8381 88.3767 99.5783M113.25 111.359C117.829 106.78 125.253 106.78 129.832 111.359C134.411 115.938 134.411 123.363 129.832 127.942C125.253 132.521 117.829 132.521 113.25 127.942C108.671 123.363 108.671 115.938 113.25 111.359ZM88.3767 130.5C85.0095 130.5 81.6422 131.804 79.1644 134.412C74.4564 139.368 74.4564 146.96 79.1644 151.916C84.1201 157.132 92.6333 157.132 97.589 151.916C102.297 146.96 102.297 139.368 97.589 134.412C95.1111 131.804 91.7439 130.5 88.3767 130.5ZM88.3767 130.5V99.5783" stroke="black" stroke-width="8" stroke-linecap="round" stroke-linejoin="round"/>
<path d="M50.7786 99.3835L95.919 22L141.059 99.3835C141.059 99.3835 153.035 121.493 138.296 146.366C118.643 179.531 71.4604 175.593 54.4635 148.209C37.8813 121.493 50.7786 99.3835 50.7786 99.3835Z" stroke="black" stroke-width="12" stroke-linecap="round" stroke-linejoin="round"/>
</svg>

<svg width="192" height="192" viewBox="0 0 192 192" fill="none" xmlns="http://www.w3.org/2000/svg"><path d="M80.086 78.195c4.955-5.216 13.469-5.216 18.424 0 4.708 4.956 4.708 12.548 0 17.504M80.086 78.194c-4.708 4.956-4.708 12.548 0 17.504 2.251 2.37 5.237 3.663 8.29 3.88m-8.29-21.384-8.291-7.37M98.51 95.698l14.74 15.661m-14.74-15.66c-2.704 2.846-6.467 4.14-10.133 3.88m24.873 11.78c4.579-4.579 12.003-4.579 16.582 0 4.579 4.579 4.579 12.004 0 16.583-4.579 4.579-12.003 4.579-16.582 0-4.579-4.579-4.579-12.004 0-16.583ZM88.377 130.5c-3.367 0-6.735 1.304-9.213 3.912-4.708 4.956-4.708 12.548 0 17.504 4.956 5.216 13.47 5.216 18.425 0 4.708-4.956 4.708-12.548 0-17.504-2.478-2.608-5.845-3.912-9.212-3.912Zm0 0V99.578" stroke="#000" stroke-width="8" stroke-linecap="round" stroke-linejoin="round"/><path d="M50.779 99.383 95.919 22l45.14 77.383s11.976 22.11-2.763 46.983c-19.653 33.165-66.836 29.227-83.832 1.843-16.583-26.716-3.685-48.826-3.685-48.826Z" stroke="#000" stroke-width="12" stroke-linecap="round" stroke-linejoin="round"/></svg>
